X:67
T:Jigs simple chords 306
M:3/4
L:1/8
K:Bm
E/F/[GE,G,B,] EE BE | E[GE,G,B,] EE BA | G[FD,F,A,] DD AD | D[dD,F,A,] cd AG | F[GE,G,B,] EE BE |
E[GE,G,B,] EE B2 | c[dD,F,A,] cd AG | F[GE,G,B,] EE E2 | E/F/[GE,G,B,] EE BE |
E[GE,G,B,] EE BA | G[FD,F,A,] DD AD | D[dD,F,A,] cd AG | F[GE,G,B,] EE BE |
E[GE,G,B,] EE B2 | c[dD,F,A,] cd AG | F[GE,G,B,] EE E2 | B[BB,DF] cd e2 |
f[e2E,2G,2B,2]f ed | B[BB,DF] cd e2 | f[eE,G,B,] dB2< d2 |[BB,DF] cd e2 |
f[e2E,2G,2B,2]f ed | B[dD,F,A,] cd AG | F[GE,G,B,] EE E2 | B[BB,DF] cd e2 |
f[e2E,2G,2B,2]f ed | B[BB,DF] cd e2 | f[eE,G,B,] dB2< d2 |[BB,DF] cd e2 |
f[e2E,2G,2B,2]f ed | B[dD,F,A,] cd AG | F[GE,G,B,] EE E2 |


